src/assets/icons/user.svg

<svg width="14" height="14" viewBox="0 0 14 14" fill="none" xmlns="http://www.w3.org/2000/svg">
<g id="user">
<g clip-path="url(#clip0_156_4700)">
<path id="Vector" fill-rule="evenodd" clip-rule="evenodd" d="M4.96774 3.8387C4.96774 2.71631 5.87761 1.80644 7 1.80644C8.12239 1.80644 9.03226 2.71631 9.03226 3.8387C9.03226 4.96108 8.12239 5.87095 7 5.87095C5.87761 5.87095 4.96774 4.96108 4.96774 3.8387ZM7 0.451599C5.12936 0.451599 3.6129 1.96805 3.6129 3.8387C3.6129 5.70934 5.12936 7.22579 7 7.22579C8.87064 7.22579 10.3871 5.70934 10.3871 3.8387C10.3871 1.96805 8.87064 0.451599 7 0.451599ZM1.35484 12.871C1.35484 12.2287 1.4991 11.7631 1.72565 11.4137C1.95292 11.0632 2.29513 10.7801 2.77152 10.5567C3.75445 10.0957 5.203 9.93547 7 9.93547C8.797 9.93547 10.2455 10.0957 11.2285 10.5567C11.7049 10.7801 12.0471 11.0632 12.2743 11.4137C12.5009 11.7631 12.6452 12.2287 12.6452 12.871C12.6452 13.2451 12.9485 13.5484 13.3226 13.5484C13.6967 13.5484 14 13.2451 14 12.871C14 12.0184 13.8056 11.2849 13.4111 10.6766C13.0174 10.0694 12.4564 9.63615 11.8038 9.33006C10.5286 8.73202 8.81591 8.58063 7 8.58063C5.18409 8.58063 3.47136 8.73202 2.19623 9.33006C1.54358 9.63615 0.982569 10.0694 0.588863 10.6766C0.194447 11.2849 0 12.0184 0 12.871C0 13.2451 0.303291 13.5484 0.677419 13.5484C1.05155 13.5484 1.35484 13.2451 1.35484 12.871Z" fill="black"/>
</g>
</g>
<defs>
<clipPath id="clip0_156_4700">
<rect width="14" height="14" fill="white"/>
</clipPath>
</defs>
</svg>

<svg xmlns="http://www.w3.org/2000/svg" fill="none" viewBox="0 0 14 14"><g clip-path="url(#a)"><path fill="#000" fill-rule="evenodd" d="M4.968 3.839a2.032 2.032 0 1 1 4.064 0 2.032 2.032 0 0 1-4.064 0M7 .452a3.387 3.387 0 1 0 0 6.774A3.387 3.387 0 0 0 7 .452M1.355 12.87c0-.642.144-1.108.37-1.457.228-.35.57-.634 1.047-.857.982-.461 2.431-.622 4.228-.622s3.246.16 4.229.622c.476.223.818.506 1.045.857.227.35.371.815.371 1.457a.677.677 0 0 0 1.355 0q.002-1.28-.589-2.194c-.394-.608-.955-1.04-1.607-1.347-1.275-.598-2.988-.75-4.804-.75s-3.529.152-4.804.75c-.652.306-1.213.74-1.607 1.347q-.59.913-.589 2.194a.677.677 0 0 0 1.355 0" clip-rule="evenodd"/></g><defs><clipPath id="a"><path fill="#fff" d="M0 0h14v14H0z"/></clipPath></defs></svg>
